flaticon/household/lamp-3.svg

<svg xmlns="http://www.w3.org/2000/svg" width="32" height="32" viewBox="0 0 24 24">
    <path d="M 21.382812 0.21875 L 21.382812 3.75 C 20.289062 3.933594 19.425781 4.796875 19.238281 5.890625 L 15.710938 5.890625 C 12.488281 5.890625 9.847656 8.398438 9.621094 11.5625 L 8.289062 11.5625 C 3.71875 11.5625 0 15.28125 0 19.855469 L 0 20.289062 L 6.136719 20.289062 C 6.351562 22.25 8.019531 23.78125 10.035156 23.78125 C 12.054688 23.78125 13.71875 22.25 13.9375 20.289062 L 20.074219 20.289062 L 20.074219 19.855469 C 20.074219 15.28125 16.355469 11.5625 11.78125 11.5625 L 10.496094 11.5625 C 10.71875 8.878906 12.96875 6.761719 15.710938 6.761719 L 19.238281 6.761719 C 19.425781 7.859375 20.289062 8.722656 21.382812 8.90625 L 21.382812 12.4375 L 24 12.4375 L 24 0.21875 Z M 0.886719 19.417969 C 1.078125 16.113281 3.445312 13.390625 6.574219 12.644531 C 4.976562 13.75 3.925781 15.589844 3.925781 17.671875 L 3.925781 19.417969 Z M 10.035156 22.910156 C 8.5 22.910156 7.226562 21.769531 7.011719 20.289062 L 13.058594 20.289062 C 12.847656 21.769531 11.574219 22.910156 10.035156 22.910156 Z M 13.964844 19.417969 L 4.800781 19.417969 L 4.800781 17.671875 C 4.800781 14.785156 7.148438 12.4375 10.035156 12.4375 C 12.921875 12.4375 15.273438 14.785156 15.273438 17.671875 L 15.273438 19.417969 Z M 19.1875 19.417969 L 16.144531 19.417969 L 16.144531 17.671875 C 16.144531 15.589844 15.09375 13.75 13.5 12.644531 C 16.625 13.390625 18.996094 16.113281 19.1875 19.417969 Z M 20.074219 6.328125 C 20.074219 5.515625 20.628906 4.832031 21.382812 4.636719 L 21.382812 8.015625 C 20.628906 7.824219 20.074219 7.140625 20.074219 6.328125 Z M 23.128906 11.5625 L 22.253906 11.5625 L 22.253906 1.089844 L 23.128906 1.089844 Z M 23.128906 11.5625"/>
</svg>

<svg xmlns="http://www.w3.org/2000/svg" width="32" height="32" viewBox="0 0 24 24">
    <path d="M21.383.219V3.75a2.624 2.624 0 0 0-2.145 2.14h-3.527c-3.223 0-5.863 2.508-6.09 5.673H8.29C3.72 11.563 0 15.28 0 19.855v.434h6.137a3.93 3.93 0 0 0 3.898 3.492 3.933 3.933 0 0 0 3.902-3.492h6.137v-.434c0-4.574-3.719-8.293-8.293-8.293h-1.285a5.24 5.24 0 0 1 5.215-4.8h3.527a2.623 2.623 0 0 0 2.145 2.144v3.531H24V.22zM.887 19.418c.191-3.305 2.558-6.027 5.687-6.773a6.109 6.109 0 0 0-2.648 5.027v1.746zm9.148 3.492a3.063 3.063 0 0 1-3.023-2.62h6.047a3.057 3.057 0 0 1-3.024 2.62zm3.93-3.492H4.8v-1.746a5.24 5.24 0 0 1 5.234-5.235 5.243 5.243 0 0 1 5.238 5.235v1.746zm5.223 0h-3.043v-1.746a6.115 6.115 0 0 0-2.645-5.027c3.125.746 5.496 3.468 5.688 6.773zm.886-13.09c0-.812.555-1.496 1.309-1.691v3.379a1.74 1.74 0 0 1-1.309-1.688zm3.055 5.234h-.875V1.09h.875zm0 0"/>
</svg>
